images/nailpolish.svg

<svg xmlns="http://www.w3.org/2000/svg" xmlns:xlink="http://www.w3.org/1999/xlink" version="1.1" x="0px" y="0px" viewBox="0 0 91 113.75" enable-background="new 0 0 91 91" xml:space="preserve"><g><path d="M45.087,47.869L39.198,2.262H28.163l-5.885,45.607c-4.471,4.188-7.094,10.547-7.094,17.443v20.08h2.344   c0.027,2.656,2.732,4.811,6.059,4.811h20.182c3.324,0,6.029-2.154,6.057-4.811h2.352v-20.08   C52.177,58.418,49.556,52.059,45.087,47.869z M30.37,4.772h6.623l5.352,41.474H25.021L30.37,4.772z M43.769,87.693H23.587   c-1.904,0-3.512-1.051-3.547-2.301h27.273C47.278,86.643,45.673,87.693,43.769,87.693z M49.667,82.883H17.694v-17.57   c0-6.752,2.754-12.906,7.385-16.557h17.205c4.631,3.65,7.383,9.805,7.383,16.557V82.883z"/><path d="M33.681,57.832c-5.84,0-10.594,4.752-10.594,10.592c0,5.842,4.754,10.596,10.594,10.596   c5.842,0,10.594-4.754,10.594-10.596C44.274,62.584,39.522,57.832,33.681,57.832z M33.681,76.51c-4.457,0-8.084-3.627-8.084-8.086   c0-4.457,3.627-8.082,8.084-8.082s8.084,3.625,8.084,8.082C41.765,72.883,38.138,76.51,33.681,76.51z"/><path d="M41.015,51.443l-1.504,2.008c1.725,1.295,3.158,3.123,4.143,5.289l2.285-1.041C44.778,55.152,43.077,52.988,41.015,51.443z   "/><rect x="35.216" y="13.07" transform="matrix(0.9923 -0.1237 0.1237 0.9923 -2.5776 4.6907)" width="2.51" height="20.051"/><path d="M39.302,37.735c-0.465-0.465-1.293-0.465-1.77,0.012c-0.24,0.227-0.365,0.553-0.365,0.879c0,0.338,0.125,0.652,0.365,0.891   c0.238,0.238,0.551,0.365,0.891,0.365c0.326,0,0.652-0.127,0.891-0.365c0.227-0.238,0.365-0.553,0.365-0.891   C39.679,38.299,39.54,37.985,39.302,37.735z"/><rect x="68.504" y="60.12" transform="matrix(0.9923 0.1237 -0.1237 0.9923 9.2164 -8.0933)" width="2.51" height="20.048"/><path d="M71.704,55.857c0.328,0,0.654-0.125,0.893-0.363s0.363-0.564,0.363-0.891s-0.125-0.652-0.363-0.891   c-0.477-0.465-1.307-0.465-1.783,0c-0.225,0.238-0.363,0.564-0.363,0.891s0.139,0.652,0.377,0.891   C71.054,55.732,71.38,55.857,71.704,55.857z"/><path d="M45.938,61.982c0.328,0,0.654-0.125,0.893-0.363s0.363-0.564,0.363-0.891s-0.125-0.652-0.363-0.891   c-0.477-0.465-1.307-0.465-1.783,0c-0.225,0.238-0.363,0.564-0.363,0.891s0.139,0.652,0.377,0.891   C45.287,61.857,45.613,61.982,45.938,61.982z"/><path d="M68.226,16.108h0.82l1.715-9.695h-7.58l1.713,9.695h0.822v28.377H55.452l6,46.49h11.035l6.002-46.49H68.226V16.108z    M67.767,8.922l-0.797,4.51l-0.795-4.51H67.767z M70.28,88.465h-6.623l-5.35-41.469h17.326L70.28,88.465z"/></g><text x="0" y="106" fill="#000000" font-size="5px" font-weight="bold" font-family="'Helvetica Neue', Helvetica, Arial-Unicode, Arial, Sans-serif">Created by Korawan.M</text><text x="0" y="111" fill="#000000" font-size="5px" font-weight="bold" font-family="'Helvetica Neue', Helvetica, Arial-Unicode, Arial, Sans-serif">from the Noun Project</text></svg>

<svg id="Layer_1" data-name="Layer 1" xmlns="http://www.w3.org/2000/svg" viewBox="0 0 63.3 88.71"><title>nailpolish</title><path d="M45.09,47.87L39.2,2.26h-11L22.28,47.87a23.84,23.84,0,0,0-7.09,17.44V85.39h2.34c0,2.66,2.73,4.81,6.06,4.81H43.77c3.32,0,6-2.15,6.06-4.81h2.35V65.31A23.86,23.86,0,0,0,45.09,47.87ZM30.37,4.77H37l5.35,41.47H25Zm13.4,82.92H23.59c-1.9,0-3.51-1.05-3.55-2.3H47.31C47.28,86.64,45.67,87.69,43.77,87.69Zm5.9-4.81h-32V65.31c0-6.75,2.75-12.91,7.39-16.56h17.2c4.63,3.65,7.38,9.81,7.38,16.56V82.88Z" transform="translate(-15.18 -2.26)"/><path d="M33.68,57.83A10.59,10.59,0,1,0,44.28,68.42,10.61,10.61,0,0,0,33.68,57.83Zm0,18.68a8.08,8.08,0,1,1,8.08-8.09A8.09,8.09,0,0,1,33.68,76.51Z" transform="translate(-15.18 -2.26)"/><path d="M41,51.44l-1.5,2a13.64,13.64,0,0,1,4.14,5.29l2.28-1A16.15,16.15,0,0,0,41,51.44Z" transform="translate(-15.18 -2.26)"/><rect x="35.21" y="13.07" width="2.51" height="20.05" transform="translate(-17.76 2.43) rotate(-7.11)"/><path d="M39.3,37.74a1.29,1.29,0,0,0-1.77,0,1.21,1.21,0,0,0-.37.88,1.25,1.25,0,0,0,1.26,1.26,1.27,1.27,0,0,0,.89-0.37A1.26,1.26,0,0,0,39.3,37.74Z" transform="translate(-15.18 -2.26)"/><rect x="59.74" y="68.88" width="20.05" height="2.51" transform="translate(-23.65 128.43) rotate(-82.89)"/><path d="M71.7,55.86a1.26,1.26,0,0,0,.89-2.14,1.25,1.25,0,0,0-2.15.89,1.28,1.28,0,0,0,.38.89A1.21,1.21,0,0,0,71.7,55.86Z" transform="translate(-15.18 -2.26)"/><path d="M45.94,62a1.26,1.26,0,0,0,.89-2.14,1.25,1.25,0,0,0-2.15.89,1.28,1.28,0,0,0,.38.89A1.21,1.21,0,0,0,45.94,62Z" transform="translate(-15.18 -2.26)"/><path d="M68.23,16.11H69l1.71-9.69H63.18l1.71,9.69h0.82V44.49H55.45l6,46.49h11l6-46.49H68.23V16.11ZM67.77,8.92L67,13.43,66.18,8.92h1.59Zm2.51,79.54H63.66L58.31,47H75.63Z" transform="translate(-15.18 -2.26)"/></svg>
